X:1
T:Wonderful Peace
T:Wonderful Peace
T:William Gustin Cooper
T:Warren Donald Cornell, 1889
T:Public Domain Courtesy of the Cyber Hymnal™
T:Public Domain Courtesy of the Cyber Hymnal™
C:William Gustin Cooper
Z:Public Domain
Z:Courtesy of the Cyber Hymnal™
%%score ( 1 2 ) ( 3 4 )
L:1/8
Q:1/4=82
M:6/8
K:Ab
V:1 treble 
V:2 treble 
V:3 bass 
V:4 bass 
V:1
 [CA]/[DB]/ | [Ec]>[Ec][Ec] [Ec]>[DB][CA] | [DB][DA][DF] [CE]2 [CA]/[DB]/ | %3
w: 1.~Far a-|way in the depths of my|spir- it to- night Rolls a|
w: 2.~What a|trea- sure I have in this|won- de- rful peace, Bur- ied|
w: 3.~I am|rest- ing to- night in this|won- der- ful peace, Rest- ing|
w: 4.~And I|think when I rise to that|ci- ty of peace, Where the|
w: 5.~A- h,|soul! are you here with- out|com- fort and rest, March- ing|
 [Ec]>[Ec][Ec] [=Dc][DB]>[Dc] | [EB]3- [EB]2 [CA]/[DB]/ | [Ec]>[Ec][Ec] [Ec]>[DB][CA] | %6
w: mel- o- dy sweet- er than|psalm; * In ce-|les- tial- like strains it un-|
w: deep in the heart of my|soul, * So se-|cure that no pow- er can|
w: sweet- ly in Je- sus’ con-|trol; * For I’m|kept from all dan- ger by|
w: an- chor of peace I shall|see, * That one|strain of the song which the|
w: down the rough path- way of|time? * Ma- ke|Je- sus your friend ere the|
 [DB][DA][DF] [FA]2 [FA]/[_FB]/ | [Ec]>[Ec][Ec] [DB][DB][DB] | [CA]6 ||"^Refrain" [Ec]3 [CA]3 | %10
w: ceas- ing- ly falls O’er my|soul like an in- fi- nite|calm.||
w: mine it a- way, While the|years of e- ter- ni- ty|roll!||
w: night and by day, And His|glor- y is flood- ing my|soul!|Peace, peace,|
w: ran- somed will sing In that|heav- en- ly king- dom will|be:||
w: sha- dows grow dark; Oh, ac-|cept this sweet peace so sub-|lime!||
 [DB]>[DA][DF] [CE]2 [CE]/[CE]/ | [FA]>[FA][FA] [Ac][AB]>[GB] | [GB]3- [GB]2 (c/d/) | %13
w: |||
w: |||
w: won- der- ful peace, Com- ing|down from the Fa- ther a-|bove! * Sweep *|
w: |||
w: |||
 [Ae]>[Ae][Ae] [Ec][DB][CA] | [DB]<[DA][DF] [FA]2 ([FA]/[_FB]/) | [Ec]>[Ec][Ac] [GB]<[GB][EB] | %16
w: |||
w: |||
w: o- ver my spir- it for-|ev- er, I pray In *|fa- thom- less bil- lows of|
w: |||
w: |||
 [EA]4 |] %17
w: |
w: |
w: love!|
w: |
w: |
V:2
 x | x6 | x6 | x6 | x6 | x6 | x6 | x6 | x6 || x6 | x6 | x6 | x5 A | x6 | x6 | x6 | x4 |] %17
V:3
 A,/A,/ | A,>A,A, A,>A,A, | [D,F,][D,F,][D,A,] [A,,A,]2 [A,,A,]/[A,,A,]/ | %3
 [A,,A,]>[A,,A,][A,,A,] [B,,A,][B,,A,]>[B,,A,] | [E,G,]3- [E,G,]2 A,/A,/ | A,>A,A, A,>A,A, | %6
 [D,F,][D,F,][D,A,] [D,D]2 [D,A,]/[D,A,]/ | [E,A,]>[E,A,][E,A,] [E,G,][E,G,][E,G,] | [A,,A,]6 || %9
 [A,,A,]3 [A,,E,]3 | [D,F,]>[D,F,][D,A,] [A,,A,]2 A,/A,/ | [F,C]>[F,C][F,C] [B,,=D][B,,D]>[B,,D] | %12
 [E,E]3- [E,E]2 (A,/B,/) | [A,C]>[A,C][A,C] A,A,A, | [D,F,]<[D,F,][D,A,] [D,D]2 [F,A,] | %15
 [E,A,]>[E,A,][E,A,] [E,D]<[E,D][E,D] | [A,,C]4 |] %17
V:4
 x | x6 | x6 | x6 | x5 A,/A,/ | A,>A,A, A,>A,A, | x6 | x6 | x6 || x6 | x5 A,/A,/ | x6 | x6 | %13
 x3 A,A,A, | x6 | x6 | x4 |] %17

